www/assets/icons/volume_up.svg

<svg width="24" height="24" viewBox="0 0 24 24" xmlns="http://www.w3.org/2000/svg" fill='currentColor'><path d="M3 8.99998V15H7L12 20V3.99998L7 8.99998H3ZM16.5 12C16.5 10.23 15.48 8.70998 14 7.96998V16.02C15.48 15.29 16.5 13.77 16.5 12ZM14 3.22998V5.28998C16.89 6.14998 19 8.82998 19 12C19 15.17 16.89 17.85 14 18.71V20.77C18.01 19.86 21 16.28 21 12C21 7.71998 18.01 4.13998 14 3.22998Z"/></svg>

<svg xmlns="http://www.w3.org/2000/svg" width="24" height="24" viewBox="0 0 24 24" fill='currentColor'><path d="M3 9v6h4l5 5V4L7 9zm13.5 3A4.5 4.5 0 0 0 14 7.97v8.05c1.48-.73 2.5-2.25 2.5-4.02M14 3.23v2.06c2.89.86 5 3.54 5 6.71s-2.11 5.85-5 6.71v2.06c4.01-.91 7-4.49 7-8.77s-2.99-7.86-7-8.77"/></svg>
